X: 22045
T: Knockard Elf, The
R: reel
M: 4/4
K: Eminor
|:eeed B2 AB|BBAB defd|deed B2 AB|defd gfed|
eeed B2 AB|BBAB dBAB|d2 B d2 B d2-|dBdB defd:|
|:eeef gfed|eB ~B2 dBAB|eeef gfed|eaaf gfed|
eeef gfed|eB ~B2 dBAB|d2 B d2 B d2-|dBdB defd:|

